lib/brands/logos/postman.svg

<svg xmlns="http://www.w3.org/2000/svg" fill="none" aria-hidden="true" viewBox="0 0 182 64"><g id="Postman"><g id="Group"><path id="Vector" fill="#FF6C37" d="M103.802 23.4828C104.72 23.4828 105.611 23.6139 106.477 23.8762C107.316 24.1647 107.762 24.5319 107.762 24.9778C107.762 25.2138 107.683 25.4499 107.526 25.6597C107.421 25.8695 107.185 26.0269 106.949 26.0269C106.608 25.922 106.267 25.7909 105.926 25.6335C105.27 25.345 104.562 25.1876 103.828 25.2138C103.067 25.1876 102.28 25.3712 101.625 25.7646C101.048 26.158 100.733 26.84 100.785 27.5481C100.759 28.2038 101.022 28.8333 101.52 29.253C102.071 29.6988 102.7 30.066 103.382 30.2758C104.116 30.5381 104.851 30.8266 105.585 31.1676C106.32 31.5348 106.949 32.0856 107.421 32.7675C107.946 33.6068 108.208 34.5772 108.182 35.5739C108.182 37.1214 107.736 38.3016 106.818 39.0885C105.821 39.9278 104.536 40.3474 103.225 40.2687C102.044 40.295 100.864 40.0064 99.8413 39.4294C98.8971 38.8 98.425 38.2492 98.425 37.6984C98.425 37.4361 98.5299 37.2 98.6873 36.9902C98.8184 36.8066 99.002 36.6755 99.238 36.6493C99.4479 36.6755 99.6315 36.7804 99.7626 36.9378C99.9724 37.1214 100.182 37.3312 100.418 37.5672C100.733 37.8557 101.1 38.0656 101.494 38.1967C102.018 38.4065 102.595 38.4852 103.146 38.4852C103.985 38.5377 104.798 38.2754 105.454 37.7771C106.031 37.2525 106.346 36.4657 106.293 35.6788C106.32 34.9182 106.057 34.21 105.533 33.6593C105.008 33.1347 104.379 32.7413 103.671 32.479C102.936 32.2167 102.228 31.9282 101.467 31.6135C100.733 31.2987 100.104 30.8266 99.6052 30.1972C99.0807 29.489 98.7922 28.6235 98.8446 27.7317C98.8184 27.0236 98.9758 26.3154 99.2905 25.6597C99.5528 25.1089 99.9724 24.663 100.497 24.3483C100.995 24.0598 101.52 23.85 102.071 23.6926C102.648 23.5615 103.225 23.4828 103.802 23.4828ZM90.373 24.7155C91.2647 25.5023 91.7106 26.7613 91.7106 28.4399V35.2329C91.7106 36.9378 91.2647 38.1705 90.373 38.9573C88.2747 40.5572 85.3896 40.5572 83.2914 38.9573C82.4259 38.1705 81.98 36.9378 81.98 35.2329V28.4399C81.98 26.7351 82.4259 25.5023 83.2914 24.7155C85.3896 23.1418 88.2747 23.1418 90.373 24.7155ZM155.182 23.5352C155.812 23.5352 156.205 23.7451 156.336 24.1909L160.979 39.1409V39.2721C160.979 39.5081 160.821 39.7179 160.612 39.8228C160.376 39.9802 160.087 40.0589 159.772 40.0327C159.484 40.0589 159.195 39.9015 159.09 39.613L158.094 36.3083H152.166L151.17 39.613C151.091 39.9015 150.776 40.0851 150.488 40.0589C150.225 40.0589 149.963 39.9802 149.727 39.8228C149.491 39.7179 149.36 39.5081 149.36 39.2458C149.36 39.1934 149.386 39.1147 149.412 39.0622L154.028 24.1909C154.16 23.7451 154.553 23.5352 155.182 23.5352ZM131.787 23.5352C132.39 23.5352 132.889 23.9287 133.308 24.7417L136.849 31.5348L140.416 24.7417C140.862 23.9549 141.36 23.5352 141.937 23.5352C142.383 23.4566 142.803 23.7713 142.881 24.2172C142.908 24.2959 142.908 24.3745 142.881 24.4532V39.3245C142.881 39.5343 142.777 39.7179 142.593 39.8228C142.173 40.0589 141.675 40.0589 141.255 39.8228C141.072 39.7179 140.967 39.5343 140.967 39.3245V27.4957L137.557 33.8953C137.452 34.2101 137.164 34.4461 136.823 34.4461C136.508 34.4199 136.22 34.2101 136.115 33.8953L132.705 27.3645V39.3245C132.705 39.5343 132.6 39.7179 132.416 39.8228C132.233 39.954 131.997 40.0327 131.787 40.0327C131.551 40.0327 131.315 39.9802 131.131 39.8491C130.921 39.7704 130.79 39.5606 130.817 39.3507V24.4795C130.738 24.0336 131.053 23.6139 131.499 23.5352C131.603 23.509 131.708 23.509 131.787 23.5352ZM168.454 23.509C168.742 23.509 169.031 23.6139 169.267 23.7975C169.529 24.0598 169.765 24.3745 169.896 24.7155L175.535 35.7313V24.1647C175.535 23.9549 175.64 23.7713 175.824 23.6926C176.244 23.4566 176.742 23.4566 177.161 23.6926C177.345 23.7975 177.45 23.9811 177.45 24.1647V39.3507C177.45 39.5606 177.345 39.7442 177.161 39.8491C176.952 39.9802 176.742 40.0327 176.506 40.0327C175.981 40.0064 175.509 39.6655 175.326 39.1671L169.398 27.8104V39.3507C169.398 39.5606 169.293 39.7442 169.136 39.8491C168.716 40.0851 168.218 40.0851 167.798 39.8491C167.614 39.7442 167.51 39.5606 167.51 39.3507V24.1647C167.51 23.7188 167.824 23.509 168.454 23.509ZM66.2956 23.509H70.5708C71.8298 23.4566 73.0887 23.8762 74.0591 24.6893C74.9247 25.4761 75.3705 26.7088 75.3705 28.3874V28.5973C75.3705 30.2758 74.9247 31.5348 74.0329 32.3216C73.0363 33.1347 71.7773 33.5806 70.4921 33.5019H67.4497V39.3507C67.4497 39.5606 67.3448 39.7442 67.1612 39.8491C66.7415 40.0851 66.2432 40.0851 65.8235 39.8491C65.6399 39.7442 65.535 39.5606 65.535 39.3507V24.1647C65.535 23.9811 65.6137 23.8238 65.7449 23.6926C65.9022 23.5615 66.0858 23.4828 66.2956 23.509ZM123.683 23.509C123.892 23.509 124.076 23.5877 124.181 23.7713C124.312 23.9287 124.364 24.1385 124.364 24.3483C124.364 24.5581 124.312 24.7942 124.181 24.9778C124.076 25.1614 123.892 25.2401 123.683 25.2401H120.089V39.3507C120.089 39.5606 119.984 39.7442 119.801 39.8491C119.381 40.0851 118.883 40.0851 118.463 39.8491C118.28 39.7442 118.175 39.5606 118.175 39.3507V25.2401H114.529C114.319 25.2401 114.136 25.1614 114.031 24.9778C113.9 24.7942 113.821 24.5844 113.821 24.3483C113.821 24.1385 113.873 23.9287 114.004 23.7713C114.109 23.5877 114.293 23.509 114.503 23.509H123.683ZM86.8584 25.2138C84.8913 25.2138 83.9209 26.263 83.9209 28.4137L83.8946 35.2329C83.8946 37.3574 84.8651 38.4328 86.8584 38.4328C87.6715 38.4852 88.4583 38.1967 89.0616 37.6459C89.6386 36.9902 89.9009 36.1247 89.8484 35.2329V28.4137C89.9271 27.5481 89.6386 26.6826 89.0616 26.0007C88.4583 25.4499 87.6715 25.1614 86.8584 25.2138ZM155.182 26.2892L152.638 34.7346H157.7L155.182 26.2892ZM70.4921 25.2401H67.4497L67.4235 31.9282H70.4921C71.3052 31.9807 72.1183 31.6922 72.6953 31.1151C73.2723 30.4594 73.5608 29.5939 73.4821 28.7022V28.4399C73.5608 27.5744 73.2723 26.7088 72.6953 26.0269C72.092 25.4761 71.3052 25.1876 70.4921 25.2401Z"/><g id="Group_2"><path id="Vector_2" fill="#FF6C37" d="M56.8009 35.1809C58.6369 20.8079 48.4867 7.6677 34.1399 5.83174C19.7932 3.99578 6.6005 14.146 4.76454 28.4927C2.92858 42.8395 13.0788 56.0059 27.4255 57.8681C41.7985 59.7041 54.9387 49.5538 56.8009 35.1809Z"/><g id="Group_3"><path id="Vector_3" fill="white" d="M40.2512 22.4625L29.1829 33.5308L26.0618 30.4096C36.9464 19.525 38.0218 20.4692 40.2512 22.4625Z"/><path id="Vector_4" fill="#FF6C37" d="M29.1829 33.7921C29.1042 33.7921 29.0518 33.7659 28.9993 33.7134L25.8519 30.5923C25.747 30.4874 25.747 30.33 25.8519 30.2251C36.9202 19.1569 38.0742 20.206 40.4085 22.3042C40.4609 22.3567 40.4872 22.4092 40.4872 22.4878C40.4872 22.5665 40.4609 22.619 40.4085 22.6714L29.3403 33.7134C29.314 33.7659 29.2354 33.7921 29.1829 33.7921ZM26.429 30.4087L29.1829 33.1626L39.8577 22.4878C37.9168 20.7568 36.6054 20.2322 26.429 30.4087Z"/><path id="Vector_5" fill="white" d="M32.3566 36.703L29.3404 33.6868L40.4086 22.6185C43.3724 25.6085 38.9399 30.4607 32.3566 36.703Z"/><path id="Vector_6" fill="#FF6C37" d="M32.3566 36.9653C32.2779 36.9653 32.2254 36.9391 32.173 36.8866L29.1568 33.8704C29.1043 33.818 29.1043 33.7655 29.1043 33.6868C29.1043 33.6081 29.1305 33.5557 29.183 33.5032L40.2512 22.435C40.3561 22.3301 40.5135 22.3301 40.6184 22.435C41.3003 23.0645 41.6675 23.9562 41.6413 24.8742C41.5889 27.7855 38.2841 31.4837 32.5664 36.8866C32.4877 36.9391 32.409 36.9653 32.3566 36.9653ZM29.7076 33.6868C31.3861 35.3917 32.0943 36.0736 32.3566 36.3359C36.7629 32.1394 41.0381 27.838 41.0643 24.8742C41.0905 24.1923 40.8282 23.5104 40.3824 22.9858L29.7076 33.6868Z"/><path id="Vector_7" fill="white" d="M26.1144 30.4875L28.3438 32.7168C28.3962 32.7693 28.3962 32.8217 28.3438 32.8742C28.3175 32.9004 28.3175 32.9004 28.2913 32.9004L23.6752 33.8971C23.4391 33.9233 23.2293 33.766 23.1768 33.5299C23.1506 33.3988 23.2031 33.2676 23.2817 33.1889L25.957 30.5137C26.0095 30.4612 26.0881 30.435 26.1144 30.4875Z"/><path id="Vector_8" fill="#FF6C37" d="M23.5964 34.1602C23.203 34.1602 22.9145 33.8454 22.9145 33.452C22.9145 33.2684 22.9932 33.0848 23.1243 32.9537L25.7996 30.2784C25.957 30.1473 26.1668 30.1473 26.3242 30.2784L28.5535 32.5078C28.7109 32.6389 28.7109 32.875 28.5535 33.0324C28.5011 33.0848 28.4486 33.111 28.3699 33.1373L23.7538 34.1339C23.7014 34.1339 23.6489 34.1602 23.5964 34.1602ZM26.0357 30.7767L23.4653 33.3471C23.4129 33.3995 23.3866 33.4782 23.4391 33.5569C23.4653 33.6356 23.544 33.6618 23.6227 33.6356L27.9503 32.6914L26.0357 30.7767Z"/><path id="Vector_9" fill="white" d="M46.1001 16.3236C44.4215 14.6975 41.72 14.75 40.0939 16.4548C38.4677 18.1596 38.5202 20.8349 40.225 22.461C41.6151 23.7986 43.7133 24.0347 45.3657 23.038L42.3757 20.048L46.1001 16.3236Z"/><path id="Vector_10" fill="#FF6C37" d="M43.1625 23.904C40.6708 23.904 38.6512 21.8845 38.6512 19.3928C38.6512 16.9011 40.6708 14.8816 43.1625 14.8816C44.3165 14.8816 45.4443 15.3275 46.2836 16.1405C46.3361 16.193 46.3623 16.2454 46.3623 16.3241C46.3623 16.4028 46.3361 16.4553 46.2836 16.5077L42.7428 20.0485L45.523 22.8287C45.6279 22.9336 45.6279 23.091 45.523 23.1959C45.4968 23.2221 45.4968 23.2221 45.4705 23.2483C44.7886 23.668 43.9755 23.904 43.1625 23.904ZM43.1625 15.4324C40.9593 15.4324 39.1758 17.2159 39.202 19.419C39.202 21.6222 40.9855 23.4057 43.1887 23.3795C43.7919 23.3795 44.3952 23.2483 44.946 22.9598L42.192 20.2321C42.1396 20.1797 42.1133 20.1272 42.1133 20.0485C42.1133 19.9698 42.1396 19.9174 42.192 19.8649L45.7066 16.3504C44.9984 15.7471 44.1067 15.4324 43.1625 15.4324Z"/><path id="Vector_11" fill="white" d="M46.1786 16.4026L46.1262 16.3501L42.3756 20.0482L45.3393 23.012C45.6279 22.8284 45.9164 22.6186 46.1524 22.3825C47.831 20.7302 47.831 18.0549 46.1786 16.4026Z"/><path id="Vector_12" fill="#FF6C37" d="M45.3657 23.3002C45.287 23.3002 45.2346 23.274 45.1821 23.2215L42.1921 20.2315C42.1396 20.1791 42.1134 20.1266 42.1134 20.0479C42.1134 19.9693 42.1396 19.9168 42.1921 19.8643L45.9165 16.14C46.0214 16.0351 46.1788 16.0351 46.2837 16.14L46.3624 16.1924C48.1196 17.9497 48.1196 20.7823 46.3886 22.5658C46.1263 22.8281 45.8378 23.0642 45.5231 23.2478C45.4444 23.274 45.3919 23.3002 45.3657 23.3002ZM42.7429 20.0479L45.3919 22.697C45.6017 22.5658 45.8116 22.3822 45.9689 22.2249C47.4639 20.7299 47.5426 18.2907 46.1001 16.717L42.7429 20.0479Z"/><path id="Vector_13" fill="white" d="M40.697 22.934C40.0675 22.3045 39.0446 22.3045 38.4151 22.934L28.5272 32.822L30.1795 34.4743L40.6445 25.2945C41.3264 24.7175 41.3789 23.6946 40.8019 23.0127C40.7494 22.9865 40.7232 22.9602 40.697 22.934Z"/><path id="Vector_14" fill="#FF6C37" d="M30.1533 34.7368C30.0746 34.7368 30.0221 34.7106 29.9697 34.6581L28.3173 33.0058C28.2124 32.9009 28.2124 32.7435 28.3173 32.6386L38.2053 22.7506C38.9396 22.0162 40.1199 22.0162 40.8543 22.7506C41.5887 23.485 41.5887 24.6653 40.8543 25.3996C40.8281 25.4259 40.8018 25.4521 40.7756 25.4783L30.3106 34.6581C30.2844 34.7106 30.2319 34.7368 30.1533 34.7368ZM28.8943 32.8222L30.1795 34.1073L40.4609 25.0849C41.0379 24.6128 41.0903 23.7473 40.6182 23.1703C40.1461 22.5932 39.2806 22.5408 38.7036 23.0129C38.6774 23.0391 38.6511 23.0654 38.5987 23.0916L28.8943 32.8222Z"/><path id="Vector_15" fill="white" d="M20.9473 44.0737C20.8424 44.1261 20.79 44.2311 20.8162 44.336L21.2621 46.2244C21.367 46.4867 21.2096 46.8014 20.9211 46.8801C20.7113 46.9588 20.4752 46.8801 20.3441 46.7227L17.459 43.8639L26.8749 34.448L30.1272 34.5005L32.3303 36.7036C31.8057 37.1495 28.6322 40.2182 20.9473 44.0737Z"/><path id="Vector_16" fill="#FF6C37" d="M20.7376 47.1424C20.5277 47.1424 20.3179 47.0637 20.1868 46.9064L17.3279 44.0475C17.2755 43.9951 17.2492 43.9426 17.2492 43.8639C17.2492 43.7852 17.2755 43.7328 17.3279 43.6803L26.7438 34.2645C26.7962 34.212 26.8749 34.1858 26.9274 34.1858L30.1797 34.2382C30.2583 34.2382 30.3108 34.2645 30.3632 34.3169L32.5664 36.5201C32.6189 36.5725 32.6451 36.6512 32.6451 36.7299C32.6451 36.8086 32.6189 36.861 32.5402 36.9135L32.3566 37.0709C29.5764 39.5101 25.7996 41.9493 21.1048 44.2836L21.5506 46.1458C21.6293 46.4867 21.4719 46.8539 21.1572 47.0375C20.9998 47.1162 20.8687 47.1424 20.7376 47.1424ZM17.8525 43.8639L20.554 46.5392C20.6327 46.6703 20.79 46.7228 20.9212 46.6441C21.0523 46.5654 21.1048 46.408 21.0261 46.2769L20.5802 44.3885C20.5277 44.1524 20.6327 43.9426 20.8425 43.8377C25.4848 41.5034 29.2354 39.0904 31.9894 36.7037L30.0485 34.7628L27.0323 34.7104L17.8525 43.8639Z"/><path id="Vector_17" fill="white" d="M15.2296 46.1201L17.4852 43.8645L20.8424 47.2217L15.4919 46.8545C15.2558 46.8283 15.0984 46.6184 15.1247 46.3824C15.1247 46.2775 15.1509 46.1726 15.2296 46.1201Z"/><path id="Vector_18" fill="#FF6C37" d="M20.8424 47.4563L15.4657 47.0891C15.0723 47.0629 14.81 46.7219 14.8362 46.3285C14.8624 46.1712 14.9149 46.0138 15.046 45.9089L17.3016 43.6533C17.4066 43.5484 17.5639 43.5484 17.6688 43.6533L21.026 47.0105C21.1047 47.0891 21.1309 47.1941 21.0785 47.299C21.026 47.4039 20.9473 47.4563 20.8424 47.4563ZM17.4852 44.2303L15.4132 46.3023C15.3345 46.3548 15.3345 46.4859 15.4132 46.5384C15.4395 46.5646 15.4657 46.5908 15.5181 46.5908L20.1605 46.9055L17.4852 44.2303Z"/><path id="Vector_19" fill="#FF6C37" d="M25.9569 35.6536C25.7996 35.6536 25.6946 35.5225 25.6946 35.3914C25.6946 35.3127 25.7209 35.2602 25.7733 35.2078L28.3174 32.6636C28.4224 32.5587 28.5797 32.5587 28.6846 32.6636L30.337 34.316C30.4157 34.3947 30.4419 34.4734 30.4157 34.5783C30.3895 34.657 30.3108 34.7357 30.2059 34.7619L26.0094 35.6536C25.9831 35.6536 25.9569 35.6536 25.9569 35.6536ZM28.501 33.2144L26.77 34.9455L29.6026 34.3422L28.501 33.2144Z"/><path id="Vector_20" fill="white" d="M30.1273 34.5L27.2422 35.1295C27.0324 35.182 26.8225 35.0508 26.7701 34.841C26.7439 34.7099 26.7701 34.5787 26.875 34.4738L28.4749 32.8739L30.1273 34.5Z"/><path id="Vector_21" fill="#FF6C37" d="M27.1895 35.3914C26.8223 35.3914 26.5338 35.1028 26.5338 34.7357C26.5338 34.5521 26.6125 34.3947 26.7174 34.2636L28.3173 32.6636C28.4222 32.5587 28.5796 32.5587 28.6845 32.6636L30.3368 34.316C30.4155 34.3947 30.4418 34.4734 30.4155 34.5783C30.3893 34.657 30.3106 34.7357 30.2057 34.7619L27.3206 35.3914C27.2682 35.3914 27.2157 35.3914 27.1895 35.3914ZM28.5009 33.2144L27.0846 34.6307C27.0321 34.6832 27.0321 34.7357 27.0583 34.7881C27.0846 34.8406 27.137 34.8668 27.2157 34.8668L29.6287 34.3422L28.5009 33.2144Z"/><path id="Vector_22" fill="#FF6C37" d="M46.2048 18.9216C46.1523 18.7642 45.9688 18.6855 45.8114 18.738C45.654 18.7904 45.5753 18.974 45.6278 19.1314C45.6278 19.1576 45.654 19.1839 45.654 19.2101C45.8114 19.5248 45.7589 19.9182 45.5491 20.2068C45.4442 20.3379 45.4704 20.5215 45.5753 20.6264C45.7065 20.7313 45.8901 20.7051 45.995 20.5739C46.3884 20.0756 46.4671 19.4461 46.2048 18.9216Z"/></g></g></g></g></svg>

<svg xmlns="http://www.w3.org/2000/svg" fill="none" aria-hidden="true" viewBox="0 0 182 64"><path fill="#FF6C37" d="M103.802 23.483c.918 0 1.809.131 2.675.393.839.289 1.285.656 1.285 1.102 0 .236-.079.472-.236.682a.677.677 0 0 1-.577.367 8.18 8.18 0 0 1-1.023-.393 4.77 4.77 0 0 0-2.098-.42 4.052 4.052 0 0 0-2.203.55 1.974 1.974 0 0 0-.84 1.784 2.107 2.107 0 0 0 .735 1.705c.551.446 1.18.813 1.862 1.023.734.262 1.469.55 2.203.892a4.898 4.898 0 0 1 1.836 1.6c.525.839.787 1.81.761 2.806 0 1.547-.446 2.728-1.364 3.515a5.096 5.096 0 0 1-3.593 1.18 6.612 6.612 0 0 1-3.384-.84c-.944-.629-1.416-1.18-1.416-1.73 0-.263.105-.499.262-.709a.775.775 0 0 1 .551-.34.81.81 0 0 1 .525.288c.21.183.419.393.655.63a2.98 2.98 0 0 0 1.076.629c.524.21 1.101.288 1.652.288a3.457 3.457 0 0 0 2.308-.708 2.623 2.623 0 0 0 .839-2.098 2.743 2.743 0 0 0-.76-2.02 5.13 5.13 0 0 0-1.862-1.18 47.589 47.589 0 0 1-2.204-.865 4.716 4.716 0 0 1-1.862-1.417c-.524-.708-.813-1.573-.76-2.465a4.413 4.413 0 0 1 .445-2.072 3.07 3.07 0 0 1 1.207-1.312 6.88 6.88 0 0 1 1.574-.655 7.811 7.811 0 0 1 1.731-.21Zm-13.429 1.233c.892.787 1.338 2.045 1.338 3.724v6.793c0 1.705-.446 2.938-1.338 3.724a5.824 5.824 0 0 1-7.082 0c-.865-.786-1.311-2.02-1.311-3.724V28.44c0-1.705.446-2.938 1.311-3.724a5.901 5.901 0 0 1 7.082 0Zm64.809-1.18c.63 0 1.023.21 1.154.655l4.643 14.95v.131c0 .236-.158.446-.367.551a1.303 1.303 0 0 1-.84.21.655.655 0 0 1-.682-.42l-.996-3.305h-5.928l-.996 3.305c-.079.289-.394.472-.682.446-.263 0-.525-.079-.761-.236a.603.603 0 0 1-.367-.577c0-.053.026-.131.052-.184l4.616-14.87c.132-.447.525-.657 1.154-.657Zm-23.395 0c.603 0 1.102.393 1.521 1.206l3.541 6.793 3.567-6.793c.446-.787.944-1.207 1.521-1.207a.826.826 0 0 1 .944.682.354.354 0 0 1 0 .236v14.872a.56.56 0 0 1-.288.498c-.42.236-.918.236-1.338 0a.563.563 0 0 1-.288-.498v-11.83l-3.41 6.4a.787.787 0 0 1-.734.551.819.819 0 0 1-.708-.55l-3.41-6.531v11.96c0 .21-.105.393-.289.498-.183.131-.419.21-.629.21a1.13 1.13 0 0 1-.656-.184.478.478 0 0 1-.314-.498V24.48c-.079-.446.236-.866.682-.945a.533.533 0 0 1 .288 0Zm36.667-.027c.288 0 .577.105.813.289.262.262.498.577.629.918l5.639 11.015V24.165c0-.21.105-.394.289-.472a1.35 1.35 0 0 1 1.337 0 .552.552 0 0 1 .289.472V39.35c0 .21-.105.393-.289.498a1.18 1.18 0 0 1-.655.184 1.334 1.334 0 0 1-1.18-.866l-5.928-11.357v11.54c0 .21-.105.394-.262.5-.42.235-.918.235-1.338 0a.561.561 0 0 1-.288-.5V24.166c0-.446.314-.656.944-.656Zm-102.158 0h4.275a5.126 5.126 0 0 1 3.488 1.18c.866.787 1.312 2.02 1.312 3.699v.21c0 1.678-.446 2.937-1.338 3.724-.997.813-2.256 1.259-3.54 1.18H67.45v5.849c0 .21-.105.393-.289.498-.42.236-.918.236-1.338 0a.562.562 0 0 1-.288-.498V24.165c0-.184.079-.341.21-.472.157-.131.34-.21.55-.184Zm57.387 0c.209 0 .393.079.498.262a.894.894 0 0 1 .183.577 1.1 1.1 0 0 1-.183.63c-.105.183-.289.262-.498.262h-3.594v14.11c0 .21-.105.394-.288.5-.42.235-.918.235-1.338 0a.563.563 0 0 1-.288-.5V25.24h-3.646c-.21 0-.393-.078-.498-.262a1.068 1.068 0 0 1-.21-.63c0-.21.052-.42.183-.577.105-.183.289-.262.499-.262h9.18Zm-36.825 1.705c-1.967 0-2.937 1.05-2.937 3.2l-.026 6.82c0 2.123.97 3.199 2.963 3.199a2.98 2.98 0 0 0 2.204-.787c.577-.656.839-1.521.786-2.413v-6.82a3.284 3.284 0 0 0-.786-2.412 2.976 2.976 0 0 0-2.204-.787Zm68.324 1.075-2.544 8.446h5.062l-2.518-8.446Zm-84.69-1.049H67.45l-.026 6.688h3.068a2.86 2.86 0 0 0 2.203-.813 3.213 3.213 0 0 0 .787-2.413v-.262a3.284 3.284 0 0 0-.787-2.413 2.976 2.976 0 0 0-2.203-.787Zm-13.691 9.941c1.836-14.373-8.314-27.513-22.661-29.35C19.793 3.997 6.6 14.147 4.765 28.494c-1.836 14.347 8.314 27.513 22.66 29.375C41.8 59.704 54.94 49.554 56.802 35.181Z"/><path fill="#fff" d="M40.251 22.463 29.183 33.53l-3.121-3.121c10.884-10.885 11.96-9.94 14.19-7.947Z"/><path fill="#FF6C37" d="M29.183 33.792a.238.238 0 0 1-.184-.078l-3.147-3.122a.254.254 0 0 1 0-.367c11.068-11.068 12.222-10.019 14.556-7.92a.238.238 0 0 1 .08.183.238.238 0 0 1-.08.184L29.34 33.714c-.026.052-.105.078-.157.078Zm-2.754-3.383 2.754 2.754 10.675-10.675c-1.941-1.731-3.252-2.256-13.429 7.92Z"/><path fill="#fff" d="m32.357 36.703-3.017-3.016 11.07-11.068c2.963 2.99-1.47 7.842-8.052 14.084Z"/><path fill="#FF6C37" d="M32.357 36.965a.238.238 0 0 1-.184-.078l-3.016-3.017c-.053-.052-.053-.104-.053-.183s.027-.131.08-.184L40.25 22.435a.254.254 0 0 1 .367 0 3.193 3.193 0 0 1 1.023 2.44c-.052 2.91-3.357 6.609-9.075 12.012a.418.418 0 0 1-.21.078Zm-2.65-3.278c1.68 1.705 2.387 2.387 2.65 2.649 4.406-4.197 8.681-8.498 8.707-11.462.027-.682-.236-1.364-.682-1.888l-10.674 10.7Z"/><path fill="#fff" d="m26.114 30.488 2.23 2.229c.052.052.052.105 0 .157-.026.026-.026.026-.053.026l-4.616.997a.459.459 0 0 1-.498-.367.388.388 0 0 1 .105-.341l2.675-2.675c.052-.053.131-.079.157-.026Z"/><path fill="#FF6C37" d="M23.596 34.16c-.393 0-.681-.314-.681-.708 0-.183.078-.367.21-.498l2.675-2.675a.399.399 0 0 1 .524 0l2.23 2.229c.157.131.157.367 0 .524a.422.422 0 0 1-.184.105l-4.616.997c-.053 0-.105.026-.158.026Zm2.44-3.383-2.57 2.57c-.053.053-.08.131-.027.21.026.079.105.105.184.079l4.327-.945-1.914-1.914Z"/><path fill="#fff" d="M46.1 16.324c-1.678-1.626-4.38-1.574-6.006.13a4.235 4.235 0 0 0 .131 6.007 4.237 4.237 0 0 0 5.14.577l-2.99-2.99 3.725-3.724Z"/><path fill="#FF6C37" d="M43.163 23.904a4.511 4.511 0 1 1 0-9.022c1.154 0 2.281.446 3.12 1.259a.238.238 0 0 1 .08.183.238.238 0 0 1-.08.184l-3.54 3.54 2.78 2.78a.254.254 0 0 1 0 .368l-.053.052a4.449 4.449 0 0 1-2.307.656Zm0-8.472c-2.204 0-3.987 1.784-3.961 3.987 0 2.203 1.784 3.987 3.987 3.96.603 0 1.206-.13 1.757-.42l-2.754-2.727a.238.238 0 0 1-.079-.183c0-.08.027-.132.079-.184l3.515-3.515a3.887 3.887 0 0 0-2.544-.918Z"/><path fill="#fff" d="m46.179 16.403-.053-.053-3.75 3.698 2.963 2.964c.289-.184.577-.393.813-.63a4.203 4.203 0 0 0 .027-5.98Z"/><path fill="#FF6C37" d="M45.366 23.3a.238.238 0 0 1-.184-.078l-2.99-2.99a.238.238 0 0 1-.078-.184.24.24 0 0 1 .078-.184l3.725-3.724a.254.254 0 0 1 .367 0l.078.052c1.758 1.758 1.758 4.59.027 6.374a4.352 4.352 0 0 1-.866.682c-.079.026-.131.052-.157.052Zm-2.623-3.252 2.649 2.649c.21-.131.42-.315.577-.472 1.495-1.495 1.574-3.934.131-5.508l-3.357 3.331Z"/><path fill="#fff" d="M40.697 22.934a1.615 1.615 0 0 0-2.282 0l-9.888 9.888 1.653 1.652 10.465-9.18c.681-.576.734-1.6.157-2.281a.36.36 0 0 1-.105-.079Z"/><path fill="#FF6C37" d="M30.153 34.737a.238.238 0 0 1-.183-.079l-1.653-1.652a.254.254 0 0 1 0-.367l9.888-9.888a1.868 1.868 0 0 1 2.65 0 1.868 1.868 0 0 1 0 2.649l-.08.078-10.464 9.18c-.027.053-.079.079-.158.079Zm-1.259-1.915 1.286 1.285 10.28-9.022c.578-.472.63-1.338.158-1.915s-1.337-.63-1.914-.157c-.027.026-.053.052-.105.079l-9.705 9.73Z"/><path fill="#fff" d="M20.947 44.074c-.104.052-.157.157-.13.262l.445 1.888a.501.501 0 0 1-.34.656.526.526 0 0 1-.578-.157l-2.885-2.86 9.416-9.415 3.252.053 2.203 2.203c-.524.446-3.698 3.514-11.383 7.37Z"/><path fill="#FF6C37" d="M20.738 47.142a.715.715 0 0 1-.551-.236l-2.859-2.858a.238.238 0 0 1-.079-.184c0-.079.027-.131.079-.184l9.416-9.416a.283.283 0 0 1 .183-.078l3.253.052c.078 0 .13.026.183.079l2.203 2.203a.297.297 0 0 1 .08.21c0 .079-.027.131-.106.184l-.183.157c-2.78 2.44-6.557 4.878-11.252 7.213l.446 1.862a.827.827 0 0 1-.394.892.899.899 0 0 1-.42.104Zm-2.886-3.278 2.702 2.675c.079.131.236.184.367.105s.184-.236.105-.367l-.446-1.889a.478.478 0 0 1 .263-.55c4.642-2.335 8.392-4.748 11.146-7.134l-1.94-1.941-3.017-.053-9.18 9.154Z"/><path fill="#fff" d="m15.23 46.12 2.255-2.255 3.358 3.357-5.351-.367a.418.418 0 0 1-.367-.472c0-.105.026-.21.105-.263Z"/><path fill="#FF6C37" d="m20.843 47.456-5.377-.367c-.394-.026-.656-.367-.63-.76.027-.158.079-.315.21-.42l2.256-2.256a.254.254 0 0 1 .367 0l3.357 3.358c.079.078.105.183.052.288-.052.105-.13.157-.235.157Zm-3.358-3.226-2.072 2.072c-.078.053-.078.184 0 .236.027.027.053.053.105.053l4.643.315-2.676-2.676Zm8.472-8.576a.263.263 0 0 1-.262-.263.24.24 0 0 1 .078-.183l2.544-2.544a.254.254 0 0 1 .368 0l1.652 1.652c.079.079.105.157.079.262a.3.3 0 0 1-.21.184l-4.197.892h-.052Zm2.544-2.44-1.73 1.732 2.832-.604-1.102-1.127Z"/><path fill="#fff" d="m30.127 34.5-2.885.63a.391.391 0 0 1-.367-.656l1.6-1.6 1.652 1.626Z"/><path fill="#FF6C37" d="M27.19 35.392a.65.65 0 0 1-.656-.656c0-.184.079-.341.183-.472l1.6-1.6a.254.254 0 0 1 .367 0l1.653 1.652c.079.079.105.157.079.262a.3.3 0 0 1-.21.184l-2.885.63h-.132Zm1.31-2.177-1.415 1.416c-.053.052-.053.105-.027.157.027.053.08.079.158.079l2.413-.525-1.128-1.127Zm17.705-14.293c-.052-.158-.236-.236-.393-.184-.158.052-.237.236-.184.393 0 .027.026.053.026.08.157.314.105.707-.105.996a.319.319 0 0 0 .026.42.296.296 0 0 0 .42-.053c.394-.498.472-1.128.21-1.652Z"/></svg>
